X:1
T:Bannersang
T:Bannersang
T:Bind 1, No. 2
T:Rudolph Bay
T:C. N. Schwach
C:R. Bay
Z:C. N. Schwach
%%score [ 1 2 3 4 ]
L:1/8
Q:1/4=120
M:4/4
K:Eb
V:1 treble-8 nm="Tenor 1" snm="T1."
V:2 treble-8 nm="T2"
V:3 bass nm="B1"
V:4 bass nm="B2"
V:1
!f!"^Tempo di marcia" B2 | G2 E2 G2 B2 | e4 e2 e2 | f3 f e2 d2 | e4 z2 B2 | g2 e2 B2 G2 | %6
w: 1.Se,|fre- dens En- gel|svæ- ver huldt|o- ver gam- le|Nord, og|Fri- heds- pal- men|
w: 2.Men|vi- ger Fre- dens|En- gel for|U- freds on- de|Aand, an-|ta- stes Pal- mens|
w: 3.Paa|Dov- re da den|stan- der, be-|redt til man- dig|Dyst, og|svin- ger Nor- ges|
w: 4.Og|hvor sig Kam- pen|ste- der, paa|Bøl- ge el- ler|Jord, den|føl- ge Sejr og|
 F4 F2 F2 | d3 d c3 c | B4 z2!mf! B2 | f3 f d2 B2 | e4 e2 e2 | f3 f d2 B2 | e4 z2!f! B2 | %13
w: hæ- ver sig|fro- dig, let og|stor; og|Nor- ges Lø- ve|hvi- ler ved|Træ- ets stær- ke|Fod og|
w: Sten- gel af|no- gen fiendt- lig|Haand, vil|Pal- mens Blom- ster|rø- ve Ørn|el- ler Le- o-|pard, da|
w: Ban- ner ud-|o- ver Land og|Kyst. Og|un- der det sig|sam- le dets|Søn- ner, Mand ved|Mand, at|
w: Hæ- der i|Old- tids- min- ders|Spor! Og|Eg med Lau- ren|blan- de sit|Løv til Krans at|sno om|
 g3 g f3 f | e4 f3 f | e3 e d2 d2 | e4 z2 |] %17
w: o- ver Da- len|smi- ler med|Fryd og ro- ligt|Mod.|
w: rej- ser Nor- ges|Lø- ve sig|med sin Hel- le-|bard.|
w: kjæm- pe for det|gam- le, det|fri- e Fæ- dre-|land.|
w: Hel- tens hø- je|Pan- de for|hæv- det Fri- heds|Ro!|
V:2
!f! B2 | G2 E2 G2 B2 | B4 B2 B2 | c3 c B2 B2 | B4 z2 B2 | B2 B2 F2 E2 | E4 D2 F2 | B3 B =A3 A | %8
w: 1.Se,|fre- dens En- gel|svæ- ver huldt|o- ver gam- le|Nord, og|Fri- heds- pal- men|hæ- ver sig|fro- dig, let og|
w: 2.Men|vi- ger Fre- dens|En- gel for|U- freds on- de|Aand, an-|ta- stes Pal- mens|Sten- gel af|no- gen fiendt- lig|
w: 3.Paa|Dov- re da den|stan- der, be-|redt til man- dig|Dyst, og|svin- ger Nor- ges|Ban- ner ud-|o- ver Land og|
w: 4.Og|hvor sig Kam- pen|ste- der, paa|Bøl- ge el- ler|Jord, den|føl- ge Sejr og|Hæ- der i|Old- tids- min- ders|
 B4 z2!mf! B2 | B3 B B2 B2 | B4 B2 B2 | B3 B B2 B2 | B4 z2!f! B2 | e3 e d3 d | c4 c3 c | %15
w: stor; og|Nor- ges Lø- ve|hvi- ler ved|Træ- ets stær- ke|Fod og|o- ver Da- len|smi- ler med|
w: Haand, vil|Pal- mens Blom- ster|rø- ve Ørn|el- ler Le- o-|pard, da|rej- ser Nor- ges|Lø- ve sig|
w: Kyst. Og|un- der det sig|sam- le dets|Søn- ner, Mand ved|Mand, at|kjæm- pe for det|gam- le, det|
w: Spor! Og|Eg med Lau- ren|blan- de sit|Løv til Krans at|sno om|Hel- tens hø- je|Pan- de for|
 B3 B B2 B2 | B4 z2 |] %17
w: Fryd og ro- ligt|Mod.|
w: med sin Hel- le-|bard.|
w: fri- e Fæ- dre-|land.|
w: hæv- det Fri- heds|Ro!|
V:3
!f! B,2 | G,2 E,2 G,2 B,2 | G,4 G,2 G,2 | A,3 A, G,2 F,2 | G,4 z2 B,2 | B,2 B,2 D,2 E,2 | %6
w: 1.Se,|fre- dens En- gel|svæ- ver huldt|o- ver gam- le|Nord, og|Fri- heds- pal- men|
w: 2.Men|vi- ger Fre- dens|En- gel for|U- freds on- de|Aand, an-|ta- stes Pal- mens|
w: 3.Paa|Dov- re da den|stan- der, be-|redt til man- dig|Dyst, og|svin- ger Nor- ges|
w: 4.Og|hvor sig Kam- pen|ste- der, paa|Bøl- ge el- ler|Jord, den|føl- ge Sejr og|
 C,4 D,2 D,2 | F,3 F, F,3 E, | D,4 z2!mf! B,2 | A,3 A, F,2 A,2 | G,4 G,2 G,2 | A,3 A, F,2 A,2 | %12
w: hæ- ver sig|fro- dig, let og|stor; og|Nor- ges Lø- ve|hvi- ler ved|Træ- ets stær- ke|
w: Sten- gel af|no- gen fiendt- lig|Haand, vil|Pal- mens Blom- ster|rø- ve Ørn|el- ler Le- o-|
w: Ban- ner ud-|o- ver Land og|Kyst. Og|un- der det sig|sam- le dets|Søn- ner, Mand ved|
w: Hæ- der i|Old- tids- min- ders|Spor! Og|Eg med Lau- ren|blan- de sit|Løv til Krans at|
 G,4 z2!f! B,2 | B,3 B, A,3 A, | G,4 A,3 A, | G,3 G, F,2 A,2 | G,4 z2 |] %17
w: Fod og|o- ver Da- len|smi- ler med|Fryd og ro- ligt|Mod.|
w: pard, da|rej- ser Nor- ges|Lø- ve sig|med sin Hel- le-|bard.|
w: Mand, at|kjæm- pe for det|gam- le, det|fri- e Fæ- dre-|land.|
w: sno om|Hel- tens hø- je|Pan- de for|hæv- det Fri- heds|Ro!|
V:4
!f! B,2 | G,2 E,2 G,2 B,2 | E,4 E,2 E,2 | A,,3 A,, B,,2 B,,2 | E,4 z2 B,2 | E,2 G,2 D,2 E,2 | %6
w: 1.Se,|fre- dens En- gel|svæ- ver huldt|o- ver gam- le|Nord, og|Fri- heds- pal- men|
w: 2.Men|vi- ger Fre- dens|En- gel for|U- freds on- de|Aand, an-|ta- stes Pal- mens|
w: 3.Paa|Dov- re da den|stan- der, be-|redt til man- dig|Dyst, og|svin- ger Nor- ges|
w: 4.Og|hvor sig Kam- pen|ste- der, paa|Bøl- ge el- ler|Jord, den|føl- ge Sejr og|
 =A,,4 B,,2 B,,2 | B,,3 D, F,3 F, | B,,4 z2!mf! B,,2 | D,3 D, B,,2 F,2 | E,4 E,2 E,2 | %11
w: hæ- ver sig|fro- dig, let og|stor; og|Nor- ges Lø- ve|hvi- ler ved|
w: Sten- gel af|no- gen fiendt- lig|Haand, vil|Pal- mens Blom- ster|rø- ve Ørn|
w: Ban- ner ud-|o- ver Land og|Kyst. Og|un- der det sig|sam- le dets|
w: Hæ- der i|Old- tids- min- ders|Spor! Og|Eg med Lau- ren|blan- de sit|
 D,3 D, B,,2 F,2 | E,4 z2!f! B,2 | E,3 E, B,,3 =B,, | C,4 A,,3 A,, | B,,3 B,, B,,2 B,,2 | E,4 z2 |] %17
w: Træ- ets stær- ke|Fod og|o- ver Da- len|smi- ler med|Fryd og ro- ligt|Mod.|
w: el- ler Le- o-|pard, da|rej- ser Nor- ges|Lø- ve sig|med sin Hel- le-|bard.|
w: Søn- ner, Mand ved|Mand, at|kjæm- pe for det|gam- le, det|fri- e Fæ- dre-|land.|
w: Løv til Krans at|sno om|Hel- tens hø- je|Pan- de for|hæv- det Fri- heds|Ro!|

